X:1
T:Open My Eyes
T:Open My Eyes
T:Clara H. Fiske Scott
T:Clara H. Fiske Scott, 1895
T:Public Domain Courtesy of the Cyber Hymnal™
C:Clara H. Fiske Scott
Z:Public Domain
Z:Courtesy of the Cyber Hymnal™
%%score ( 1 2 ) ( 3 4 )
L:1/8
Q:1/4=100
M:6/8
K:Ab
V:1 treble 
V:2 treble 
V:3 bass 
V:4 bass 
V:1
 [EA][EG][EF] E2 [EF] | [DF]2 [DE] [DE]3 | [DB][DG][DF] [DE]2 [DG] | [CF]2 [CE] [CE]3 | %4
w: 1.~O- pen my eyes, that|I may see|Glimps- es of truth Thou|hast for me;|
w: 2.~O- pen my ears, that|I may hear|Voic- es of truth Thou|send- est clear;|
w: 3.~O- pen my mouth, and|let me bear,|Glad- ly the warm truth|ev- ery- where;|
 [C=E][C=D][CE] [CF]2 [CF] | [CG][CF][=EG] [FA]3 | [=DF][DG][DA] [DB]2 [DG] | %7
w: Place in my hands the|won- der- ful key|That shall un- clasp and|
w: And while the wave notes|fall on my ear,|Ev- ery- thing false will|
w: O- pen my heart and|let me pre- pare|Love with Thy child- ren|
 [=DG]2 [DF] !fermata!E3 ||"^Refrain" [EA][EG][EF] E2 [EF] | [DF]2 [DE] [DE]3 | %10
w: set me free.|||
w: dis- ap- pear.|Si- lent- ly now I|wait for Thee,|
w: thus to share.|||
 [DB][DG][DF] [DE]2 [DG] | [CF]2 [CE] [CE]3 | [Ec][EB][EA] [_GA]2 [GA] | %13
w: |||
w: Rea- dy my God, Thy|will to see,|O- pen my eyes, il-|
w: |||
 [FB]2 [FA] !fermata![DF]3 | [DE]3 [DB]2 [CA] | [CA]6 |] %16
w: |||
w: lum- ine me,|Spir- it di-|vine!|
w: |||
V:2
 x3 E2 x | x6 | x6 | x6 | x6 | x6 | x6 | x3 E3 || x3 E2 x | x6 | x6 | x6 | x6 | x6 | x6 | x6 |] %16
V:3
 [A,,C][A,,C][A,,C] [A,,C]2 [A,,A,] | [B,,G,]2 [B,,G,] [B,,G,]3 | %2
 [E,G,][E,B,][E,A,] [E,G,]2 [E,B,] | A,2 A, A,3 | [G,B,][G,B,][G,B,] [F,A,]2 [F,A,] | %5
 [=E,B,][F,A,][C,B,] [F,A,]3 | [B,,A,][B,,G,][B,,F,] [B,,F,]2 [B,,B,] | %7
 [B,,B,]2 [B,,A,] !fermata![E,G,]3 || [A,,C][A,,C][A,,C] [A,,C]2 [A,,A,] | %9
 [B,,G,]2 [B,,G,] [B,,G,]3 | [E,G,][E,B,][E,A,] [E,G,]2 [E,B,] | A,2 A, A,3 | %12
 [A,,A,][B,,G,][C,A,] [C,A,]2 [C,A,] | [D,A,]2 [D,A,] !fermata![D,A,]3 | [E,G,]3 [E,G,]2 [A,,A,] | %15
 [A,,A,]6 |] %16
V:4
 x6 | x6 | x6 | A,2 A, A,3 | x6 | x6 | x6 | x6 || x6 | x6 | x6 | A,2 A, A,3 | x6 | x6 | x6 | x6 |] %16

